X:397
T:Of Age Tomorrow. RH.397
T:New Way of Getting Bairns,aka. RH.397
T:Open The Door To Three,aka. RH.397
R:slip jig
S:Rev.R.Harrison’s MS,c1815,Cumbria
N:cf Winifred’s Knot in Playford, and the morris dances
N:Beaux of London City (Adderbury) and Shooting (Hinton).
O:England
A:Temple Sowerby,Cumbria
Z:vmp.Simon Wilson. Review PJH, 2008.
M:9/8
L:1/8
Q:3/8=140
K:G
“Quick”D|G2B BGB AFD|G2B BGB c2d|\
efg dcB AFD|G2c BAB G2:|!
|:d|gdB gdB AFD|gfg def gdB|\
cac BgB AFD|G2c BAB G2:|

